svg/furkot/freepik/menu.svg

<svg viewBox="0 0 512 512" xmlns="http://www.w3.org/2000/svg"><path d="m462.452 24.774h-412.904c-27.251 0-49.548 22.297-49.548 49.549s22.297 49.548 49.548 49.548h412.904c27.251 0 49.548-22.297 49.548-49.548s-22.297-49.549-49.548-49.549zm0 181.678h-412.904c-27.251 0-49.548 22.296-49.548 49.548s22.297 49.548 49.548 49.548h412.904c27.251 0 49.548-22.296 49.548-49.548s-22.297-49.548-49.548-49.548zm0 181.677h-412.904c-27.251 0-49.548 22.297-49.548 49.548s22.297 49.549 49.548 49.549h412.904c27.251 0 49.548-22.297 49.548-49.549s-22.297-49.548-49.548-49.548z"/></svg>

<svg xmlns="http://www.w3.org/2000/svg" viewBox="0 0 512 512"><path d="M462.452 24.774H49.548C22.297 24.774 0 47.071 0 74.323S22.297 123.871 49.548 123.871H462.452C489.703 123.871 512 101.574 512 74.323S489.703 24.774 462.452 24.774ZM462.452 206.452H49.548C22.297 206.452 0 228.748 0 256 0 283.252 22.297 305.548 49.548 305.548H462.452C489.703 305.548 512 283.252 512 256 512 228.748 489.703 206.452 462.452 206.452ZM462.452 388.129H49.548C22.297 388.129 0 410.426 0 437.677S22.297 487.226 49.548 487.226H462.452C489.703 487.226 512 464.929 512 437.677S489.703 388.129 462.452 388.129Z"/></svg>
